UI/Navigation-Image/SVG/brightness-on_solid_16px.svg

<svg width="16" height="16" viewBox="0 0 16 16" fill="none" xmlns="http://www.w3.org/2000/svg">
<path d="M12 8.00003C12 8.79115 11.7654 9.56451 11.3259 10.2223C10.8864 10.8801 10.2617 11.3928 9.53076 11.6955C8.79986 11.9983 7.99559 12.0775 7.21967 11.9232C6.44374 11.7688 5.73101 11.3879 5.1716 10.8285C4.61219 10.269 4.23123 9.55631 4.07689 8.78039C3.92255 8.00446 4.00176 7.2002 4.30451 6.46929C4.60726 5.73839 5.11995 5.11367 5.77775 4.67415C6.43554 4.23462 7.2089 4.00003 8.00003 4.00003C9.06089 4.00003 10.0783 4.42145 10.8285 5.1716C11.5786 5.92175 12 6.93916 12 8.00003ZM8.00003 1.00003C7.66495 0.996007 7.33021 1.02279 7.00003 1.08003V2.08003C7.66129 1.96002 8.33876 1.96002 9.00003 2.08003V1.08003C8.66985 1.02279 8.33511 0.996007 8.00003 1.00003ZM9.00003 13.91C8.33876 14.03 7.66129 14.03 7.00003 13.91V14.91C7.3299 14.9706 7.66464 15.0007 8.00003 15C8.33511 15.004 8.66985 14.9773 9.00003 14.92V13.92V13.91ZM2.09003 7.00003H1.09003C1.02943 7.3299 0.999307 7.66464 1.00003 8.00003C0.996007 8.33511 1.02279 8.66985 1.08003 9.00003H2.08003C1.96002 8.33876 1.96002 7.66129 2.08003 7.00003H2.09003ZM14.92 7.00003H13.92C14.04 7.66129 14.04 8.33876 13.92 9.00003H14.92C14.9773 8.66985 15.004 8.33511 15 8.00003C15.004 7.66495 14.9773 7.33021 14.92 7.00003ZM3.81003 2.40003C3.26804 2.79206 2.79206 3.26804 2.40003 3.81003L3.12003 4.53003C3.50122 3.9789 3.9789 3.50122 4.53003 3.12003L3.81003 2.40003ZM12.89 11.48C12.498 12.022 12.022 12.498 11.48 12.89L12.19 13.6C12.732 13.208 13.208 12.732 13.6 12.19L12.89 11.48ZM3.12003 11.48L2.40003 12.19C2.79206 12.732 3.26804 13.208 3.81003 13.6L4.53003 12.89C3.9789 12.5088 3.50122 12.0312 3.12003 11.48ZM12.19 2.40003L11.48 3.12003C12.0312 3.50122 12.5088 3.9789 12.89 4.53003L13.6 3.81003C13.208 3.26804 12.732 2.79206 12.19 2.40003Z" fill="#0F1621"/>
</svg>

<svg xmlns="http://www.w3.org/2000/svg" width="16" height="16" viewBox="0 0 16 16"><rect width="16" height="16" style="fill:none"/><path d="M12,8A4,4,0,1,1,8,4,4,4,0,0,1,12,8ZM8,1a5.47,5.47,0,0,0-1,.08v1a5.6,5.6,0,0,1,2,0v-1A5.47,5.47,0,0,0,8,1ZM9,13.91a5.6,5.6,0,0,1-2,0v1A5.47,5.47,0,0,0,8,15a5.47,5.47,0,0,0,1-.08v-1ZM2.09,7h-1A5.47,5.47,0,0,0,1,8a5.47,5.47,0,0,0,.08,1h1a5.6,5.6,0,0,1,0-2ZM14.92,7h-1a5.6,5.6,0,0,1,0,2h1A5.47,5.47,0,0,0,15,8a5.47,5.47,0,0,0-.08-1ZM3.81,2.4A6.29,6.29,0,0,0,2.4,3.81l.72.72A5.56,5.56,0,0,1,4.53,3.12L3.81,2.4Zm9.08,9.08a6.29,6.29,0,0,1-1.41,1.41l.71.71a6.29,6.29,0,0,0,1.41-1.41l-.71-.71Zm-9.77,0-.72.71A6.29,6.29,0,0,0,3.81,13.6l.72-.71a5.56,5.56,0,0,1-1.41-1.41ZM12.19,2.4l-.71.72a5.56,5.56,0,0,1,1.41,1.41l.71-.72A6.29,6.29,0,0,0,12.19,2.4Z"/></svg>
